dist/static/img/shop/02.svg

<svg width="48" height="48" viewBox="0 0 48 48" fill="none" xmlns="http://www.w3.org/2000/svg">
<g clip-path="url(#clip0_1075_6520)">
<path d="M47.25 24.1823C47.25 22.014 45.486 20.25 43.3185 20.25C42.5737 20.25 41.8665 20.4645 41.25 20.8485V3C41.25 1.7595 40.2405 0.75 39 0.75H6C4.7595 0.75 3.75 1.7595 3.75 3V9.75H3C1.7595 9.75 0.75 10.7595 0.75 12V24C0.75 25.2405 1.7595 26.25 3 26.25H3.75V45C3.75 46.2405 4.7595 47.25 6 47.25H39C40.2405 47.25 41.25 46.2405 41.25 45V31.8105L46.0988 26.9618C46.8413 26.2193 47.25 25.2323 47.25 24.1823ZM6 2.25H39C39.414 2.25 39.75 2.58675 39.75 3V6.75H5.25V3C5.25 2.58675 5.586 2.25 6 2.25ZM2.25 24V12C2.25 11.5868 2.586 11.25 3 11.25H19.5C19.914 11.25 20.25 11.5868 20.25 12V24C20.25 24.4132 19.914 24.75 19.5 24.75H3C2.586 24.75 2.25 24.4132 2.25 24ZM39.75 45C39.75 45.414 39.414 45.75 39 45.75H6C5.586 45.75 5.25 45.414 5.25 45V26.25H19.5C20.7405 26.25 21.75 25.2405 21.75 24V12C21.75 10.7595 20.7405 9.75 19.5 9.75H5.25V8.25H39.75V22.1895L38.25 23.6895V18.75H24.75V26.25H35.6895L24.0435 37.896L23.1165 44.3835L29.604 43.4565L39.75 33.3105V45ZM25.2803 39.8407L27.6593 42.2197L24.8843 42.6157L25.2803 39.8407ZM29.25 41.6895L28.0605 40.5L40.5 28.0605L41.6895 29.25L29.25 41.6895ZM27 39.4395L25.8105 38.25L38.25 25.8105L39.4395 27L27 39.4395ZM36.75 24.75H26.25V20.25H36.75V24.75ZM45.0382 25.9012L42.75 28.1895L39.3105 24.75L41.5988 22.4625H41.5995C42.0578 22.0028 42.6683 21.75 43.3185 21.75C44.6595 21.75 45.75 22.8412 45.75 24.1823C45.75 24.8228 45.4905 25.449 45.0382 25.9012Z" fill="white"/>
<path d="M9 3.75H10.5V5.25H9V3.75Z" fill="white"/>
<path d="M6 3.75H7.5V5.25H6V3.75Z" fill="white"/>
<path d="M12 3.75H13.5V5.25H12V3.75Z" fill="white"/>
<path d="M9.04688 22.2676L12.0542 13.2647L13.477 13.7399L10.4697 22.7428L9.04688 22.2676Z" fill="white"/>
<path d="M14.4707 15.5302L16.9405 18L14.4707 20.4697L15.5312 21.5302L19.0615 18L15.5312 14.4697L14.4707 15.5302Z" fill="white"/>
<path d="M6.9697 14.4697L3.43945 18L6.9697 21.5302L8.0302 20.4697L5.56045 18L8.0302 15.5302L6.9697 14.4697Z" fill="white"/>
<path d="M38.25 9.75H24.75V17.25H38.25V9.75ZM36.75 15.75H26.25V11.25H36.75V15.75Z" fill="white"/>
<path d="M6.75 42.75H18.75V44.25H6.75V42.75Z" fill="white"/>
<path d="M6.75 39.75H21.75V41.25H6.75V39.75Z" fill="white"/>
<path d="M8.25 38.25H9.75V36.75H11.25V35.25H9.75V27.75H8.25V35.25H6.75V36.75H8.25V38.25Z" fill="white"/>
<path d="M14.25 38.25H15.75V30.75H17.25V29.25H15.75V27.75H14.25V29.25H12.75V30.75H14.25V38.25Z" fill="white"/>
<path d="M23.25 33.75V32.25H21.75V27.75H20.25V32.25H18.75V33.75H20.25V38.25H21.75V33.75H23.25Z" fill="white"/>
<path d="M20.25 42.75H21.75V44.25H20.25V42.75Z" fill="white"/>
<path d="M36.75 36.75H38.25V38.25H36.75V36.75Z" fill="white"/>
<path d="M36.75 42.75H38.25V44.25H36.75V42.75Z" fill="white"/>
<path d="M36.75 39.75H38.25V41.25H36.75V39.75Z" fill="white"/>
</g>
<defs>
<clipPath id="clip0_1075_6520">
<rect width="48" height="48" fill="white"/>
</clipPath>
</defs>
</svg>

<svg width="48" height="48" viewBox="0 0 48 48" fill="none" xmlns="http://www.w3.org/2000/svg"><g clip-path="url(#clip0_1075_6520)" fill="#fff"><path d="M47.25 24.182a3.937 3.937 0 00-3.931-3.932c-.745 0-1.453.215-2.069.599V3c0-1.24-1.01-2.25-2.25-2.25H6C4.76.75 3.75 1.76 3.75 3v6.75H3C1.76 9.75.75 10.76.75 12v12c0 1.24 1.01 2.25 2.25 2.25h.75V45c0 1.24 1.01 2.25 2.25 2.25h33c1.24 0 2.25-1.01 2.25-2.25V31.81l4.849-4.848a3.905 3.905 0 001.151-2.78zM6 2.25h33a.75.75 0 01.75.75v3.75H5.25V3A.75.75 0 016 2.25zM2.25 24V12a.75.75 0 01.75-.75h16.5a.75.75 0 01.75.75v12a.75.75 0 01-.75.75H3a.75.75 0 01-.75-.75zm37.5 21a.75.75 0 01-.75.75H6a.75.75 0 01-.75-.75V26.25H19.5c1.24 0 2.25-1.01 2.25-2.25V12c0-1.24-1.01-2.25-2.25-2.25H5.25v-1.5h34.5v13.94l-1.5 1.5v-4.94h-13.5v7.5h10.94L24.044 37.896l-.928 6.487 6.488-.927L39.75 33.31V45zm-14.47-5.16l2.38 2.38-2.776.396.396-2.775zm3.97 1.85l-1.19-1.19L40.5 28.06l1.19 1.19-12.44 12.44zM27 39.44l-1.19-1.19 12.44-12.44L39.44 27 27 39.44zm9.75-14.69h-10.5v-4.5h10.5v4.5zm8.288 1.151L42.75 28.19l-3.44-3.439 2.289-2.288a2.41 2.41 0 011.72-.712 2.435 2.435 0 012.431 2.432c0 .64-.26 1.267-.712 1.72z"/><path d="M9 3.75h1.5v1.5H9v-1.5zm-3 0h1.5v1.5H6v-1.5zm6 0h1.5v1.5H12v-1.5zM9.047 22.268l3.007-9.003 1.423.475-3.007 9.003-1.423-.475zm5.423-6.738L16.94 18l-2.47 2.47 1.061 1.06 3.53-3.53-3.53-3.53-1.06 1.06zm-7.5-1.06L3.44 18l3.53 3.53 1.06-1.06L5.56 18l2.47-2.47-1.06-1.06zm31.28-4.72h-13.5v7.5h13.5v-7.5zm-1.5 6h-10.5v-4.5h10.5v4.5zm-30 27h12v1.5h-12v-1.5zm0-3h15v1.5h-15v-1.5zm1.5-1.5h1.5v-1.5h1.5v-1.5h-1.5v-7.5h-1.5v7.5h-1.5v1.5h1.5v1.5zm6 0h1.5v-7.5h1.5v-1.5h-1.5v-1.5h-1.5v1.5h-1.5v1.5h1.5v7.5zm9-4.5v-1.5h-1.5v-4.5h-1.5v4.5h-1.5v1.5h1.5v4.5h1.5v-4.5h1.5zm-3 9h1.5v1.5h-1.5v-1.5zm16.5-6h1.5v1.5h-1.5v-1.5zm0 6h1.5v1.5h-1.5v-1.5zm0-3h1.5v1.5h-1.5v-1.5z"/></g><defs><clipPath id="clip0_1075_6520"><path fill="#fff" d="M0 0h48v48H0z"/></clipPath></defs></svg>
